build/finance/RUBSolid.svg

<svg xmlns="http://www.w3.org/2000/svg" fill="none" viewBox="0 0 24 24" focusable="false"><path d="M0 0H24V24H0z"/><path fill="#74767B" fill-rule="evenodd" d="M21 12C21 16.9706 16.9706 21 12 21C7.02944 21 3 16.9706 3 12C3 7.02944 7.02944 3 12 3C16.9706 3 21 7.02944 21 12ZM9.67574 7.00684C9.31675 7.00684 9.02574 7.29785 9.02574 7.65684L9.02574 12.3512L8.33018 12.3512C7.97119 12.3512 7.68018 12.6422 7.68018 13.0012C7.68018 13.3601 7.97119 13.6512 8.33018 13.6512L9.02574 13.6512L9.02574 14.6995L8.32432 14.6995C7.96533 14.6995 7.67432 14.9905 7.67432 15.3495C7.67432 15.7085 7.96533 15.9995 8.32432 15.9995L9.02574 15.9995L9.02574 16.8473C9.02574 17.2063 9.31675 17.4973 9.67574 17.4973C10.0347 17.4973 10.3257 17.2063 10.3257 16.8473L10.3257 15.9995L13.3456 15.9995C13.7045 15.9995 13.9956 15.7085 13.9956 15.3495C13.9956 14.9905 13.7045 14.6995 13.3456 14.6995L10.3257 14.6995L10.3257 13.6512L13.0036 13.6512C14.8384 13.6512 16.3257 12.1638 16.3257 10.329C16.3257 8.49422 14.8384 7.00684 13.0036 7.00684L9.67574 7.00684ZM13.0036 12.3512L10.3257 12.3512L10.3257 8.30684L13.0036 8.30684C14.1204 8.30684 15.0257 9.21219 15.0257 10.329C15.0257 11.4458 14.1204 12.3512 13.0036 12.3512Z"/></svg>

<svg xmlns="http://www.w3.org/2000/svg" fill="none" viewBox="0 0 24 24" focusable="false"><path fill="#74767B" fill-rule="evenodd" d="M21 12a9 9 0 0 1-9 9c-4.98 0-9-4.03-9-9 0-4.98 4.02-9 9-9 4.97 0 9 4.02 9 9M9.67 7c-.36 0-.65.29-.65.65v4.7h-.69c-.36 0-.65.29-.65.65s.29.65.65.65h.69v1.04h-.7c-.36 0-.65.3-.65.65 0 .36.29.65.65.65h.7v.85c0 .36.29.65.65.65s.65-.29.65-.65v-.85h3.02c.36 0 .65-.29.65-.65 0-.35-.29-.65-.65-.65h-3.02v-1.04H13A3.325 3.325 0 0 0 13 7zM13 12.35h-2.68V8.3H13c1.12 0 2.02.91 2.02 2.02 0 1.12-.9 2.03-2.02 2.03"/></svg>
